src/assets/icons/category_Others.svg

<?xml version="1.0" encoding="UTF-8" standalone="no"?>
<svg width="38px" height="38px" viewBox="0 0 38 38" version="1.1" xmlns="http://www.w3.org/2000/svg" xmlns:xlink="http://www.w3.org/1999/xlink">
    <!-- Generator: sketchtool 41.2 (35397) - http://www.bohemiancoding.com/sketch -->
    <title>DDD6F274-A54F-4A9F-8D42-AABCB8E7D0D0</title>
    <desc>Created with sketchtool.</desc>
    <defs></defs>
    <g id="Nav" stroke="none" stroke-width="1" fill="none" fill-rule="evenodd">
        <g id="Categories_Selected_Mobile-" transform="translate(-80.000000, -776.000000)" fill="#AEAEAE">
            <path d="M89.1666667,792 C87.417875,792 86,793.417875 86,795.166667 C86,796.915458 87.417875,798.333333 89.1666667,798.333333 C90.9154583,798.333333 92.3333333,796.915458 92.3333333,795.166667 C92.3333333,793.417875 90.9154583,792 89.1666667,792 M89.1666667,793.583333 C90.039875,793.583333 90.75,794.293458 90.75,795.166667 C90.75,796.039875 90.039875,796.75 89.1666667,796.75 C88.2934583,796.75 87.5833333,796.039875 87.5833333,795.166667 C87.5833333,794.293458 88.2934583,793.583333 89.1666667,793.583333 Z M98.6666667,792 C96.917875,792 95.5,793.417875 95.5,795.166667 C95.5,796.915458 96.917875,798.333333 98.6666667,798.333333 C100.415458,798.333333 101.833333,796.915458 101.833333,795.166667 C101.833333,793.417875 100.415458,792 98.6666667,792 Z M98.6666667,793.583333 C99.539875,793.583333 100.25,794.293458 100.25,795.166667 C100.25,796.039875 99.539875,796.75 98.6666667,796.75 C97.7934583,796.75 97.0833333,796.039875 97.0833333,795.166667 C97.0833333,794.293458 97.7934583,793.583333 98.6666667,793.583333 Z M108.166667,792 C106.417875,792 105,793.417875 105,795.166667 C105,796.915458 106.417875,798.333333 108.166667,798.333333 C109.915458,798.333333 111.333333,796.915458 111.333333,795.166667 C111.333333,793.417875 109.915458,792 108.166667,792 Z M108.166667,793.583333 C109.039875,793.583333 109.75,794.293458 109.75,795.166667 C109.75,796.039875 109.039875,796.75 108.166667,796.75 C107.293458,796.75 106.583333,796.039875 106.583333,795.166667 C106.583333,794.293458 107.293458,793.583333 108.166667,793.583333 Z" id="Combined-Shape"></path>
        </g>
    </g>
</svg>

<svg width="38" height="38" viewBox="0 0 38 38" xmlns="http://www.w3.org/2000/svg"><g id="Nav" fill="none" fill-rule="evenodd"><g id="Categories_Selected_Mobile-" transform="translate(-80 -776)" fill="#AEAEAE"><path d="M89.167 792a3.167 3.167 0 1 0 0 6.334 3.167 3.167 0 0 0 0-6.334m0 1.583c.873 0 1.583.71 1.583 1.584 0 .873-.71 1.583-1.583 1.583-.874 0-1.584-.71-1.584-1.583 0-.874.71-1.584 1.584-1.584zm9.5-1.583a3.167 3.167 0 1 0 0 6.334 3.167 3.167 0 0 0 0-6.334zm0 1.583c.873 0 1.583.71 1.583 1.584 0 .873-.71 1.583-1.583 1.583-.874 0-1.584-.71-1.584-1.583 0-.874.71-1.584 1.584-1.584zm9.5-1.583a3.167 3.167 0 1 0 0 6.334 3.167 3.167 0 0 0 0-6.334zm0 1.583c.873 0 1.583.71 1.583 1.584 0 .873-.71 1.583-1.583 1.583-.874 0-1.584-.71-1.584-1.583 0-.874.71-1.584 1.584-1.584z" id="Combined-Shape"/></g></g></svg>
